X: 57
T: Fengshou ge
%%abc-version 2.0
%%abcx-abcm2ps-target-version 5.9.1 (29 Sep 2008)
%%abc-creator hum2abc beta
%%abcx-conversion-date 2013/10/02 07:44:27
%%abc-edited-by Helmut Schaffrath
%%humdrum-veritas 71101980
%%humdrum-veritas-data 2692863603
%%continueall 1
%%barnumbers 0
L: 1/8
M: 2/4
K: G
G E/ E/ G A [I:setbarnb 1]| 
B B/ d/A2- | 
A4 | 
B4 | 
A G A B/ d/ | 
B A G z | 
z G G G | 
[M:3/4]A B A B G A | 
[M:2/4]A4 | 
E4 |]  



